X:1
T:Lady Muir MacKenzie
M:C|
L:1/8
R:Reel
S:from a transcription by Ronald Caplan for Cape Breton's Magazine (Issue 38, 1985, p. 19)
K:Dmix
c|AddA FDDF|EcGc ECCA|d2 AG FGAg|fdec d/d/d d:||
e|fddb adaf|gcca gcge|fddb adaf|gcge d2 dA|
d/d/d df abaf|gcca gcge|dfeg fagb|afge d2d||

